TV/Source/HRT 1.svg

<svg height="225pt" viewBox="0 0 641.02856 225" width="641.02856pt" xmlns="http://www.w3.org/2000/svg"><path d="m590.70083 4.716113 50.31745.030801.0103 220.150416-19.1578.0616-.041-202.460764-40.64617-.06161 9.51731-17.7204501z" fill="#fff" stroke-width="1.026677"/><path d="m .0000003 224.99999h23.1330067v-224.93312379h-23.1330067z" fill="#fff"/><path d="m455.70303 158.57851h-65.67635v65.67635h65.67635z" fill="#e53427"/><g fill="#a8a6a6"><path d="m15.131827 224.93312v-224.93312379h65.733669v80.98012879h55.836774v-80.98012879h65.74321v224.93312379h-65.74321v-87.52389h-55.836774v87.52389z"/><path d="m200.08591 98.509734h9.03707c10.48911 0 18.1601-1.8055 23.00344-5.41651 4.83378-3.611 7.26022-9.275879 7.26022-16.994649 0-9.02751-2.25449-15.45663-6.77302-19.26824-4.50898-3.82117-12.10356-5.73176-22.76462-5.73176h-9.76309zm-57.42262 126.423386v-224.93312379h64.00459c25.05731 0 42.52961 1.15589999 52.40733 3.44859989 9.87773 2.31181 18.38938 6.1807399 25.55407 11.6067999 8.08178 6.15209 14.30073 13.98548 18.64731 23.509749 4.35613 9.52426 6.5342 20.02292 6.5342 31.49599 0 17.414969-4.27971 31.572405-12.82958 42.481845-8.54986 10.91899-21.00688 18.15055-37.39014 21.74245l61.27245 90.64769h-69.25869l-51.51892-88.00153v88.00153z"/><path d="m324.34078 94.279124v-36.971149h-50.3248v-57.30797879h166.39282v57.30797879h-50.33435v37.824129z"/></g><path d="m136.76914 80.989675h15.92472v-80.70309879h-15.92472z" fill="#fff"/><path d="m259.31404 57.116915h15.92472v-57.05960879h-15.92472z" fill="#fff"/><path d="m389.99803 92.863954h-65.67635v65.685896h65.67635z" fill="#e53427"/></svg>

<?xml version="1.0" encoding="UTF-8" standalone="no"?>
<svg
   xmlns:dc="http://purl.org/dc/elements/1.1/"
   xmlns:cc="http://creativecommons.org/ns#"
   xmlns:rdf="http://www.w3.org/1999/02/22-rdf-syntax-ns#"
   xmlns:svg="http://www.w3.org/2000/svg"
   xmlns="http://www.w3.org/2000/svg"
   xmlns:sodipodi="http://sodipodi.sourceforge.net/DTD/sodipodi-0.dtd"
   xmlns:inkscape="http://www.inkscape.org/namespaces/inkscape"
   width="641.02856pt"
   height="225pt"
   viewBox="0 0 641.02856 225"
   version="1.1"
   id="svg24"
   sodipodi:docname="HRT 1.svg"
   inkscape:version="0.92.0 r15299">
  <metadata
     id="metadata30">
    <rdf:RDF>
      <cc:Work
         rdf:about="">
        <dc:format>image/svg+xml</dc:format>
        <dc:type
           rdf:resource="http://purl.org/dc/dcmitype/StillImage" />
        <dc:title></dc:title>
      </cc:Work>
    </rdf:RDF>
  </metadata>
  <defs
     id="defs28" />
  <sodipodi:namedview
     pagecolor="#ffffff"
     bordercolor="#666666"
     borderopacity="1"
     objecttolerance="10"
     gridtolerance="10"
     guidetolerance="10"
     inkscape:pageopacity="0"
     inkscape:pageshadow="2"
     inkscape:window-width="1920"
     inkscape:window-height="1017"
     id="namedview26"
     showgrid="false"
     fit-margin-top="0"
     fit-margin-left="0"
     fit-margin-right="0"
     fit-margin-bottom="0"
     inkscape:zoom="0.88857666"
     inkscape:cx="310.9683"
     inkscape:cy="1.5622554"
     inkscape:window-x="-8"
     inkscape:window-y="-8"
     inkscape:window-maximized="1"
     inkscape:current-layer="svg24" />
  <path
     style="opacity:1;fill:#ffffff;stroke-width:1.02667725;fill-opacity:1"
     inkscape:connector-curvature="0"
     id="path13"
     d="m 590.70083,4.716113 50.31745,0.030801 0.0103,220.150416 -19.1578,0.0616 -0.041,-202.460764 -40.64617,-0.06161 9.51731,-17.7204501 z"
     sodipodi:nodetypes="cccccccc" />
  <path
     id="path6234"
     style="fill:#ffffff;fill-opacity:1;fill-rule:nonzero;stroke:none;stroke-width:9.5529232"
     d="M 2.9835114e-7,224.99999 H 23.133007 V 0.06686621 H 2.9835114e-7 Z"
     inkscape:connector-curvature="0" />
  <path
     id="path6226"
     style="fill:#e53427;fill-opacity:1;fill-rule:nonzero;stroke:none;stroke-width:9.5529232"
     d="m 455.70303,158.57851 h -65.67635 v 65.67635 h 65.67635 z"
     inkscape:connector-curvature="0" />
  <path
     id="path6228"
     style="fill:#a8a6a6;fill-opacity:1;fill-rule:nonzero;stroke:none;stroke-width:9.5529232"
     d="M 15.131827,224.93312 V -3.7862713e-6 H 80.865496 V 80.980125 H 136.70227 V -3.7862715e-6 h 65.74321 V 224.93312 H 136.70227 V 137.40923 H 80.865496 v 87.52389 z"
     inkscape:connector-curvature="0" />
  <path
     id="path6230"
     style="fill:#a8a6a6;fill-opacity:1;fill-rule:nonzero;stroke:none;stroke-width:9.5529232"
     d="m 200.08591,98.509734 h 9.03707 c 10.48911,0 18.1601,-1.8055 23.00344,-5.41651 4.83378,-3.611 7.26022,-9.275879 7.26022,-16.994649 0,-9.02751 -2.25449,-15.45663 -6.77302,-19.26824 -4.50898,-3.82117 -12.10356,-5.73176 -22.76462,-5.73176 h -9.76309 z M 142.66329,224.93312 V -3.7862713e-6 h 64.00459 c 25.05731,0 42.52961,1.1558999862713 52.40733,3.4485998862713 9.87773,2.31181 18.38938,6.1807399 25.55407,11.6067999 8.08178,6.15209 14.30073,13.98548 18.64731,23.509749 4.35613,9.52426 6.5342,20.02292 6.5342,31.49599 0,17.414969 -4.27971,31.572405 -12.82958,42.481845 -8.54986,10.91899 -21.00688,18.15055 -37.39014,21.74245 l 61.27245,90.64769 h -69.25869 l -51.51892,-88.00153 v 88.00153 z"
     inkscape:connector-curvature="0" />
  <path
     sodipodi:nodetypes="ccccccccc"
     id="path6232"
     style="fill:#a8a6a6;fill-opacity:1;fill-rule:nonzero;stroke:none;stroke-width:9.5529232"
     d="M 324.34078,94.279124 V 57.307975 h -50.3248 V -3.7862713e-6 H 440.4088 V 57.307975 h -50.33435 v 37.824129 z"
     inkscape:connector-curvature="0" />
  <path
     id="path6236"
     style="fill:#ffffff;fill-opacity:1;fill-rule:nonzero;stroke:none;stroke-width:9.5529232"
     d="m 136.76914,80.989675 h 15.92472 V 0.28657621 h -15.92472 z"
     inkscape:connector-curvature="0" />
  <path
     id="path6238"
     style="fill:#ffffff;fill-opacity:1;fill-rule:nonzero;stroke:none;stroke-width:9.5529232"
     d="m 259.31404,57.116915 h 15.92472 V 0.05730621 h -15.92472 z"
     inkscape:connector-curvature="0" />
  <path
     id="path6224"
     style="fill:#e53427;fill-opacity:1;fill-rule:nonzero;stroke:none;stroke-width:9.5529232"
     d="m 389.99803,92.863954 h -65.67635 v 65.685896 h 65.67635 z"
     inkscape:connector-curvature="0" />
</svg>
